remix/Map/map-pin-time-line.svg

<svg viewBox="0 0 24 24" fill="currentColor" xmlns="http://www.w3.org/2000/svg"><path d="M16.9497 15.9497C19.6834 13.2161 19.6834 8.78392 16.9497 6.05025C14.2161 3.31658 9.78392 3.31658 7.05025 6.05025C4.31658 8.78392 4.31658 13.2161 7.05025 15.9497L12 20.8995L16.9497 15.9497ZM12 23.7279L5.63604 17.364C2.12132 13.8492 2.12132 8.15076 5.63604 4.63604C9.15076 1.12132 14.8492 1.12132 18.364 4.63604C21.8787 8.15076 21.8787 13.8492 18.364 17.364L12 23.7279ZM13 11H17V13H11V6H13V11Z"/></svg>

<svg viewBox="0 0 24 24" xmlns="http://www.w3.org/2000/svg"><path fill="none" d="M0 0h24v24H0Z"/><path d="M16.95 15.95v0c2.73-2.74 2.73-7.17-.01-9.9 -2.74-2.74-7.17-2.74-9.9 0C4.3 8.78 4.3 13.21 7.03 15.94l4.95 4.95 4.95-4.95ZM12 23.72l-6.37-6.37v0c-3.52-3.52-3.52-9.22 0-12.73 3.51-3.52 9.21-3.52 12.72 0 3.51 3.51 3.51 9.21 0 12.72l-6.37 6.36Zm1-12.73h4v2h-6v-7h2v5Z"/></svg>
